public/images/wallet/subtract.svg

<svg width="43" height="90" viewBox="0 0 43 90" fill="none" xmlns="http://www.w3.org/2000/svg">
<g id="Subtract" filter="url(#filter0_dd_4786_6082)">
<mask id="path-1-inside-1_4786_6082" fill="white">
<path fill-rule="evenodd" clip-rule="evenodd" d="M2.23779 15.6645C2.23779 8.24921 8.24907 2.23792 15.6644 2.23792H40.2798V9.72757C33.9296 10.3143 29.0909 13.3558 29.0909 17.0197C29.0909 20.6836 33.9296 23.7251 40.2798 24.3118V28.223C33.9296 28.8097 29.0909 31.8512 29.0909 35.5151C29.0909 39.179 33.9296 42.2205 40.2798 42.8072V47.9402C33.9296 48.5269 29.0909 51.5684 29.0909 55.2323C29.0909 58.8962 33.9296 61.9377 40.2798 62.5244V67.6581C33.9296 68.2448 29.0909 71.2863 29.0909 74.9502C29.0909 78.6141 33.9296 81.6556 40.2798 82.2423V87.2729H15.6644C8.24907 87.2729 2.23779 81.2616 2.23779 73.8463V15.6645Z"/>
</mask>
<path fill-rule="evenodd" clip-rule="evenodd" d="M2.23779 15.6645C2.23779 8.24921 8.24907 2.23792 15.6644 2.23792H40.2798V9.72757C33.9296 10.3143 29.0909 13.3558 29.0909 17.0197C29.0909 20.6836 33.9296 23.7251 40.2798 24.3118V28.223C33.9296 28.8097 29.0909 31.8512 29.0909 35.5151C29.0909 39.179 33.9296 42.2205 40.2798 42.8072V47.9402C33.9296 48.5269 29.0909 51.5684 29.0909 55.2323C29.0909 58.8962 33.9296 61.9377 40.2798 62.5244V67.6581C33.9296 68.2448 29.0909 71.2863 29.0909 74.9502C29.0909 78.6141 33.9296 81.6556 40.2798 82.2423V87.2729H15.6644C8.24907 87.2729 2.23779 81.2616 2.23779 73.8463V15.6645Z" fill="#965EFB" fill-opacity="0.7" shape-rendering="crispEdges"/>
<path d="M40.2798 2.23792H40.6714V1.84631H40.2798V2.23792ZM40.2798 9.72757L40.3158 10.1175L40.6714 10.0847V9.72757H40.2798ZM40.2798 24.3118H40.6714V23.9547L40.3158 23.9218L40.2798 24.3118ZM40.2798 28.223L40.3158 28.613L40.6714 28.5801V28.223H40.2798ZM40.2798 42.8072H40.6714V42.4501L40.3158 42.4173L40.2798 42.8072ZM40.2798 47.9402L40.3158 48.3301L40.6714 48.2972V47.9402H40.2798ZM40.2798 62.5244H40.6714V62.1673L40.3158 62.1344L40.2798 62.5244ZM40.2798 67.6581L40.3158 68.0481L40.6714 68.0152V67.6581H40.2798ZM40.2798 82.2423H40.6714V81.8852L40.3158 81.8524L40.2798 82.2423ZM40.2798 87.2729V87.6645H40.6714V87.2729H40.2798ZM15.6644 1.84631C8.03279 1.84631 1.84618 8.03293 1.84618 15.6645H2.6294C2.6294 8.46549 8.46535 2.62952 15.6644 2.62952V1.84631ZM40.2798 1.84631H15.6644V2.62952H40.2798V1.84631ZM40.6714 9.72757V2.23792H39.8881V9.72757H40.6714ZM29.4825 17.0197C29.4825 15.3748 30.5701 13.8036 32.5163 12.5488C34.4553 11.2986 37.1884 10.4065 40.3158 10.1175L40.2437 9.33762C37.021 9.63538 34.1597 10.5573 32.0918 11.8906C30.0311 13.2192 28.6993 15.0007 28.6993 17.0197H29.4825ZM40.3158 23.9218C37.1884 23.6329 34.4553 22.7407 32.5163 21.4905C30.5701 20.2358 29.4825 18.6646 29.4825 17.0197H28.6993C28.6993 19.0387 30.0311 20.8202 32.0918 22.1488C34.1597 23.482 37.021 24.404 40.2437 24.7017L40.3158 23.9218ZM40.6714 28.223V24.3118H39.8881V28.223H40.6714ZM29.4825 35.5151C29.4825 33.8702 30.5701 32.299 32.5163 31.0443C34.4553 29.7941 37.1884 28.9019 40.3158 28.613L40.2437 27.8331C37.021 28.1308 34.1597 29.0528 32.0918 30.386C30.0311 31.7146 28.6993 33.4961 28.6993 35.5151H29.4825ZM40.3158 42.4173C37.1884 42.1283 34.4553 41.2362 32.5163 39.986C30.5701 38.7312 29.4825 37.16 29.4825 35.5151H28.6993C28.6993 37.5341 30.0311 39.3156 32.0918 40.6443C34.1597 41.9775 37.021 42.8994 40.2437 43.1972L40.3158 42.4173ZM40.6714 47.9402V42.8072H39.8881V47.9402H40.6714ZM29.4825 55.2323C29.4825 53.5873 30.5701 52.0162 32.5163 50.7614C34.4553 49.5112 37.1884 48.6191 40.3158 48.3301L40.2437 47.5502C37.021 47.848 34.1597 48.7699 32.0918 50.1031C30.0311 51.4318 28.6993 53.2133 28.6993 55.2323H29.4825ZM40.3158 62.1344C37.1884 61.8455 34.4553 60.9533 32.5163 59.7031C30.5701 58.4484 29.4825 56.8772 29.4825 55.2323H28.6993C28.6993 57.2512 30.0311 59.0327 32.0918 60.3614C34.1597 61.6946 37.021 62.6166 40.2437 62.9143L40.3158 62.1344ZM40.6714 67.6581V62.5244H39.8881V67.6581H40.6714ZM29.4825 74.9502C29.4825 73.3053 30.5701 71.7341 32.5163 70.4794C34.4553 69.2292 37.1884 68.337 40.3158 68.0481L40.2437 67.2682C37.021 67.5659 34.1597 68.4879 32.0918 69.8211C30.0311 71.1497 28.6993 72.9312 28.6993 74.9502H29.4825ZM40.3158 81.8524C37.1884 81.5634 34.4553 80.6713 32.5163 79.4211C30.5701 78.1663 29.4825 76.5951 29.4825 74.9502H28.6993C28.6993 76.9692 30.0311 78.7507 32.0918 80.0793C34.1597 81.4126 37.021 82.3345 40.2437 82.6323L40.3158 81.8524ZM40.6714 87.2729V82.2423H39.8881V87.2729H40.6714ZM15.6644 87.6645H40.2798V86.8813H15.6644V87.6645ZM1.84618 73.8463C1.84618 81.4779 8.03279 87.6645 15.6644 87.6645V86.8813C8.46535 86.8813 2.6294 81.0453 2.6294 73.8463H1.84618ZM1.84618 15.6645V73.8463H2.6294V15.6645H1.84618Z" fill="#D9D9D9" mask="url(#path-1-inside-1_4786_6082)"/>
</g>
<defs>
<filter id="filter0_dd_4786_6082" x="3.0756e-05" y="0.000152826" width="42.5175" height="89.5105" filterUnits="userSpaceOnUse" color-interpolation-filters="sRGB">
<feFlood flood-opacity="0" result="BackgroundImageFix"/>
<feColorMatrix in="SourceAlpha" type="matrix" values="0 0 0 0 0 0 0 0 0 0 0 0 0 0 0 0 0 0 127 0" result="hardAlpha"/>
<feOffset dy="1.11888"/>
<feGaussianBlur stdDeviation="0.559441"/>
<feComposite in2="hardAlpha" operator="out"/>
<feColorMatrix type="matrix" values="0 0 0 0 0 0 0 0 0 0 0 0 0 0 0 0 0 0 0.1 0"/>
<feBlend mode="normal" in2="BackgroundImageFix" result="effect1_dropShadow_4786_6082"/>
<feColorMatrix in="SourceAlpha" type="matrix" values="0 0 0 0 0 0 0 0 0 0 0 0 0 0 0 0 0 0 127 0" result="hardAlpha"/>
<feOffset/>
<feGaussianBlur stdDeviation="1.11888"/>
<feComposite in2="hardAlpha" operator="out"/>
<feColorMatrix type="matrix" values="0 0 0 0 0 0 0 0 0 0 0 0 0 0 0 0 0 0 0.14 0"/>
<feBlend mode="normal" in2="effect1_dropShadow_4786_6082" result="effect2_dropShadow_4786_6082"/>
<feBlend mode="normal" in="SourceGraphic" in2="effect2_dropShadow_4786_6082" result="shape"/>
</filter>
</defs>
</svg>

<svg xmlns="http://www.w3.org/2000/svg" width="43" height="90" fill="none"><g filter="url(#a)"><mask id="b" fill="#fff"><path fill-rule="evenodd" d="M2.238 15.665c0-7.416 6.011-13.427 13.426-13.427H40.28v7.49c-6.35.586-11.19 3.628-11.19 7.292 0 3.664 4.84 6.705 11.19 7.292v3.911c-6.35.587-11.19 3.628-11.19 7.292 0 3.664 4.84 6.706 11.19 7.292v5.133c-6.35.587-11.19 3.628-11.19 7.292 0 3.664 4.84 6.706 11.19 7.292v5.134c-6.35.587-11.19 3.628-11.19 7.292 0 3.664 4.84 6.706 11.19 7.292v5.03H15.664c-7.415 0-13.426-6.01-13.426-13.426V15.665Z" clip-rule="evenodd"/></mask><path fill="#965EFB" fill-opacity=".7" fill-rule="evenodd" d="M2.238 15.665c0-7.416 6.011-13.427 13.426-13.427H40.28v7.49c-6.35.586-11.19 3.628-11.19 7.292 0 3.664 4.84 6.705 11.19 7.292v3.911c-6.35.587-11.19 3.628-11.19 7.292 0 3.664 4.84 6.706 11.19 7.292v5.133c-6.35.587-11.19 3.628-11.19 7.292 0 3.664 4.84 6.706 11.19 7.292v5.134c-6.35.587-11.19 3.628-11.19 7.292 0 3.664 4.84 6.706 11.19 7.292v5.03H15.664c-7.415 0-13.426-6.01-13.426-13.426V15.665Z" clip-rule="evenodd" shape-rendering="crispEdges"/><path fill="#D9D9D9" d="M40.28 2.238h.391v-.392h-.391v.392Zm0 7.49.036.39.355-.033v-.357h-.391Zm0 14.584h.391v-.357l-.355-.033-.036.39Zm0 3.911.036.39.355-.033v-.357h-.391Zm0 14.584h.391v-.357l-.355-.033-.036.39Zm0 5.133.036.39.355-.033v-.357h-.391Zm0 14.584h.391v-.357l-.355-.033-.036.39Zm0 5.134.036.39.355-.033v-.357h-.391Zm0 14.584h.391v-.357l-.355-.033-.036.39Zm0 5.03v.392h.391v-.391h-.391ZM15.664 1.847c-7.631 0-13.818 6.187-13.818 13.819h.783c0-7.2 5.836-13.035 13.035-13.035v-.784Zm24.616 0H15.664v.784H40.28v-.784Zm.391 7.882v-7.49h-.783v7.49h.783ZM29.483 17.02c0-1.645 1.087-3.216 3.033-4.471 1.94-1.25 4.672-2.143 7.8-2.431l-.072-.78c-3.223.297-6.084 1.22-8.152 2.553-2.06 1.328-3.393 3.11-3.393 5.129h.784Zm10.833 6.902c-3.128-.29-5.86-1.181-7.8-2.431-1.946-1.255-3.033-2.826-3.033-4.471h-.784c0 2.019 1.332 3.8 3.393 5.129 2.068 1.333 4.929 2.255 8.152 2.553l.072-.78Zm.355 4.301v-3.911h-.783v3.911h.783Zm-11.188 7.292c0-1.645 1.087-3.216 3.033-4.47 1.94-1.25 4.672-2.143 7.8-2.432l-.072-.78c-3.223.298-6.084 1.22-8.152 2.553-2.06 1.329-3.393 3.11-3.393 5.13h.784Zm10.833 6.902c-3.128-.289-5.86-1.18-7.8-2.431-1.946-1.255-3.033-2.826-3.033-4.47h-.784c0 2.018 1.332 3.8 3.393 5.128 2.068 1.334 4.929 2.255 8.152 2.553l.072-.78Zm.355 5.523v-5.133h-.783v5.133h.783Zm-11.188 7.292c0-1.645 1.087-3.216 3.033-4.47 1.94-1.25 4.672-2.143 7.8-2.432l-.072-.78c-3.223.298-6.084 1.22-8.152 2.553-2.06 1.329-3.393 3.11-3.393 5.13h.784Zm10.833 6.902c-3.128-.288-5.86-1.18-7.8-2.43-1.946-1.256-3.033-2.827-3.033-4.472h-.784c0 2.02 1.332 3.8 3.393 5.13 2.068 1.333 4.929 2.255 8.152 2.552l.072-.78Zm.355 5.524v-5.134h-.783v5.134h.783ZM29.483 74.95c0-1.645 1.087-3.216 3.033-4.47 1.94-1.25 4.672-2.143 7.8-2.432l-.072-.78c-3.223.298-6.084 1.22-8.152 2.553-2.06 1.329-3.393 3.11-3.393 5.13h.784Zm10.833 6.902c-3.128-.289-5.86-1.18-7.8-2.43-1.946-1.256-3.033-2.827-3.033-4.472h-.784c0 2.02 1.332 3.8 3.393 5.13 2.068 1.333 4.929 2.255 8.152 2.552l.072-.78Zm.355 5.42v-5.03h-.783v5.03h.783Zm-25.007.392H40.28v-.783H15.664v.784ZM1.846 73.847c0 7.632 6.187 13.819 13.818 13.819v-.784c-7.199 0-13.035-5.836-13.035-13.035h-.783Zm0-58.181v58.181h.783V15.665h-.783Z" mask="url(#b)"/></g><defs><filter id="a" width="42.517" height="89.51" x="0" y="0" color-interpolation-filters="sRGB" filterUnits="userSpaceOnUse"><feFlood flood-opacity="0" result="BackgroundImageFix"/><feColorMatrix in="SourceAlpha" result="hardAlpha" values="0 0 0 0 0 0 0 0 0 0 0 0 0 0 0 0 0 0 127 0"/><feOffset dy="1.119"/><feGaussianBlur stdDeviation=".559"/><feComposite in2="hardAlpha" operator="out"/><feColorMatrix values="0 0 0 0 0 0 0 0 0 0 0 0 0 0 0 0 0 0 0.1 0"/><feBlend in2="BackgroundImageFix" result="effect1_dropShadow_4786_6082"/><feColorMatrix in="SourceAlpha" result="hardAlpha" values="0 0 0 0 0 0 0 0 0 0 0 0 0 0 0 0 0 0 127 0"/><feOffset/><feGaussianBlur stdDeviation="1.119"/><feComposite in2="hardAlpha" operator="out"/><feColorMatrix values="0 0 0 0 0 0 0 0 0 0 0 0 0 0 0 0 0 0 0.14 0"/><feBlend in2="effect1_dropShadow_4786_6082" result="effect2_dropShadow_4786_6082"/><feBlend in="SourceGraphic" in2="effect2_dropShadow_4786_6082" result="shape"/></filter></defs></svg>
